packages/icons/raw/imported/OtherId.svg

<svg width="32" height="32" viewBox="0 0 32 32" fill="none" xmlns="http://www.w3.org/2000/svg">
<path d="M22.6482 20.125L23.0502 20.4224L22.6482 20.125ZM23.7766 17.774L24.2603 17.9007H24.2603L23.7766 17.774ZM7.52717 22.9999C7.52717 23.276 7.75103 23.4999 8.02717 23.4999C8.30332 23.4999 8.52717 23.276 8.52717 22.9999H7.52717ZM8.52717 13.2406C8.52717 12.9645 8.30332 12.7406 8.02717 12.7406C7.75103 12.7406 7.52717 12.9645 7.52717 13.2406H8.52717ZM7.5 10.0836C7.5 10.3597 7.72386 10.5836 8 10.5836C8.27614 10.5836 8.5 10.3597 8.5 10.0836H7.5ZM8.5 9C8.5 8.72386 8.27614 8.5 8 8.5C7.72386 8.5 7.5 8.72386 7.5 9L8.5 9ZM16.9085 9.56394C20.5572 9.56394 23.5 12.468 23.5 16.032H24.5C24.5 11.8992 21.0929 8.56394 16.9085 8.56394V9.56394ZM16.9085 8.56394H14.0621V9.56394H16.9085V8.56394ZM12.2371 10.4236V21.6404H13.2371V10.4236H12.2371ZM14.0621 23.5H16.9085V22.5H14.0621V23.5ZM22.2463 19.8276C21.0487 21.4462 19.1054 22.5 16.9085 22.5V23.5C19.4315 23.5 21.6696 22.2884 23.0502 20.4224L22.2463 19.8276ZM23.5 16.032C23.5 16.5903 23.428 17.1315 23.2929 17.6473L24.2603 17.9007C24.4168 17.3029 24.5 16.6766 24.5 16.032H23.5ZM23.2929 17.6473C23.0845 18.4431 22.7253 19.1802 22.2463 19.8276L23.0502 20.4224C23.6029 19.6753 24.0187 18.8228 24.2603 17.9007L23.2929 17.6473ZM12.2371 21.6404C12.2371 22.6552 13.0421 23.5 14.0621 23.5V22.5C13.6185 22.5 13.2371 22.1274 13.2371 21.6404H12.2371ZM14.0621 8.56394C13.0421 8.56394 12.2371 9.40873 12.2371 10.4236H13.2371C13.2371 9.93658 13.6185 9.56394 14.0621 9.56394V8.56394ZM8.52717 22.9999V13.2406H7.52717V22.9999H8.52717ZM8.5 10.0836L8.5 9L7.5 9L7.5 10.0836H8.5Z" fill="black"/>
</svg>

<svg width="32" height="32" fill="none" xmlns="http://www.w3.org/2000/svg"><path d="m22.648 20.125.402.297-.402-.297Zm1.129-2.351.483.127-.483-.127ZM7.527 23a.5.5 0 0 0 1 0h-1Zm1-9.76a.5.5 0 0 0-1 0h1ZM7.5 10.085a.5.5 0 0 0 1 0h-1ZM8.5 9a.5.5 0 0 0-1 0h1Zm8.409.564c3.648 0 6.591 2.904 6.591 6.468h1c0-4.133-3.407-7.468-7.591-7.468v1Zm0-1h-2.847v1h2.847v-1Zm-4.672 1.86V21.64h1V10.424h-1ZM14.062 23.5h2.847v-1h-2.847v1Zm8.184-3.672A6.622 6.622 0 0 1 16.91 22.5v1a7.622 7.622 0 0 0 6.141-3.078l-.804-.594Zm1.254-3.796c0 .558-.072 1.1-.207 1.615l.967.254a7.37 7.37 0 0 0 .24-1.869h-1Zm-.207 1.615a6.384 6.384 0 0 1-1.047 2.18l.804.595c.553-.747.969-1.6 1.21-2.521l-.967-.254ZM12.237 21.64c0 1.015.805 1.86 1.825 1.86v-1c-.444 0-.825-.373-.825-.86h-1Zm1.825-13.076c-1.02 0-1.825.845-1.825 1.86h1c0-.487.381-.86.825-.86v-1ZM8.527 23v-9.76h-1V23h1ZM8.5 10.084V9h-1v1.084h1Z" fill="#000"/></svg>
